dist/svg/u1F469_u1F3FC_u200D_u1F4BC.svg

<?xml version="1.0" encoding="UTF-8"?><svg id="Layer_1" xmlns="http://www.w3.org/2000/svg" viewBox="0 0 40 40"><g><path d="M28.03215,28.13337l-4.21357-1.60077c-2.45996-.93456-5.17724-.93456-7.63721,0l-4.21353,1.60076c-2.02818,.77052-3.7072,2.21749-4.77105,4.07082-.43647,.76037-.71285,1.60203-.92235,2.45337l-.53861,2.18883c-.08143,.33092,.16906,.65052,.50985,.65052h27.50864c.34079,0,.59128-.31961,.50985-.65053l-.53865-2.18889c-.2095-.85133-.48589-1.69297-.92235-2.45333-1.06385-1.85332-2.74286-3.30027-4.77102-4.07078Z" style="fill:#6b778a;"/><path d="M23.81857,26.53262c-2.45994-.93456-5.17725-.93456-7.6372,0l-.4614,.17531v10.78896h8.5539v-10.79131l-.4553-.17295Z" style="fill:#f0f0f0;"/><polygon points="16.18137 26.5326 18.04023 37.49379 12.45067 37.49379 11.5986 34.28059 13.84806 32.8832 11.5986 31.54693 12.29345 28.00965 16.18137 26.5326" style="fill:#4f5966;"/><polygon points="23.84161 26.53881 21.98275 37.5 27.57231 37.5 28.42438 34.2868 26.17492 32.88941 28.42438 31.55314 27.72953 28.01586 23.84161 26.53881" style="fill:#4f5966;"/><g><path d="M8.86537,23.07881s-1.35954-14.94319,5.86732-18.11034c0,0,1.98667-2.87923,6.42068-2.41855s7.82018,3.8759,8.9544,6.96773c.84493,2.30325,1.68064,7.17929,1.54866,12.82945-.01532,.6559-.36784,1.25719-.92846,1.59797-1.22329,.74359-4.05802,1.69625-10.55353,1.69625-10.65314,0-11.30906-2.56251-11.30906-2.56251Z" style="fill:#ffdb87;"/><path d="M23.53345,12.20452c-3.91159-.57518-6.45596-3.13805-7.27046-4.07604-.11076-.12756-.31973-.07171-.35034,.09369-.18982,1.02554-.86384,3.63459-3.00849,5.52576,0,0-.35972,.27201-.76275,.8071-.59204,.78602-.82505,1.78708-.65743,2.75316,.73253,4.22213,4.30028,7.42646,8.59349,7.42646,4.03528,0,7.42965-2.83117,8.43172-6.67716,.49847-2.85671-1.25048-5.3052-4.97573-5.85297Z" style="fill:#ffb582;"/><g><ellipse cx="17.44578" cy="15.46371" rx=".97173" ry="1.16607"/><ellipse cx="22.5765" cy="15.46371" rx=".97173" ry="1.16607"/></g><path d="M21.22097,20.58667c.21786,0,.37246,.20925,.31481,.41934-.18374,.66956-.79674,1.16152-1.52465,1.16152s-1.34091-.49196-1.52465-1.16152c-.05765-.21009,.09695-.41934,.31481-.41934h2.41967Z" style="fill:#5c2f17;"/></g><path d="M17.81531,22.64913h4.39235v4.16896c0,1.2121-.98407,2.19617-2.19617,2.19617h0c-1.2121,0-2.19617-.98407-2.19617-2.19617v-4.16896h0Z" style="fill:#ffb582;"/></g><rect width="40" height="40" style="fill:none;"/></svg>

<svg id="Layer_1" data-name="Layer 1" xmlns="http://www.w3.org/2000/svg" viewBox="0 0 40 40"><defs><style>.cls-1{fill:#6b778a;}.cls-2{fill:#f0f0f0;}.cls-3{fill:#4f5966;}.cls-4{fill:#ffdb87;}.cls-5{fill:#ffb582;}.cls-6{fill:#5c2f17;}.cls-7{fill:none;}</style></defs><path class="cls-1" d="M28.032,28.133l-4.213-1.6a10.75,10.75,0,0,0-7.638,0l-4.213,1.6A9.322,9.322,0,0,0,7.2,32.2a9.417,9.417,0,0,0-.923,2.454l-.538,2.188a.525.525,0,0,0,.51.651H33.754a.525.525,0,0,0,.51-.651l-.538-2.189A9.424,9.424,0,0,0,32.8,32.2,9.322,9.322,0,0,0,28.032,28.133Z"/><path class="cls-2" d="M23.819,26.533a10.75,10.75,0,0,0-7.638,0l-.461.175V37.5h8.554V26.706Z"/><polygon class="cls-3" points="16.181 26.533 18.04 37.494 12.451 37.494 11.599 34.281 13.848 32.883 11.599 31.547 12.293 28.01 16.181 26.533"/><polygon class="cls-3" points="23.842 26.539 21.983 37.5 27.572 37.5 28.424 34.287 26.175 32.889 28.424 31.553 27.73 28.016 23.842 26.539"/><path class="cls-4" d="M8.865,23.079S7.506,8.136,14.733,4.968a6.91,6.91,0,0,1,6.42-2.418,11.19,11.19,0,0,1,8.955,6.968,39.47,39.47,0,0,1,1.548,12.829,1.924,1.924,0,0,1-.928,1.6c-1.223.744-4.058,1.7-10.554,1.7C9.521,25.641,8.865,23.079,8.865,23.079Z"/><path class="cls-5" d="M23.533,12.205a12.378,12.378,0,0,1-7.27-4.077.2.2,0,0,0-.35.094A9.977,9.977,0,0,1,12.9,13.748a4.412,4.412,0,0,0-.763.807,3.565,3.565,0,0,0-.657,2.753,8.822,8.822,0,0,0,8.593,7.427,8.791,8.791,0,0,0,8.432-6.678C29.008,15.2,27.259,12.752,23.533,12.205Z"/><ellipse cx="17.446" cy="15.464" rx="0.972" ry="1.166"/><ellipse cx="22.576" cy="15.464" rx="0.972" ry="1.166"/><path class="cls-6" d="M21.221,20.587a.33.33,0,0,1,.315.419,1.582,1.582,0,0,1-3.05,0,.33.33,0,0,1,.315-.419Z"/><path class="cls-5" d="M17.815,22.649h4.392a0,0,0,0,1,0,0v4.169a2.2,2.2,0,0,1-2.2,2.2h0a2.2,2.2,0,0,1-2.2-2.2V22.649A0,0,0,0,1,17.815,22.649Z"/><rect class="cls-7" width="40" height="40"/></svg>
